X:28
T: Das Schwabentoechterlein
N: Q2073F
O: Nordeuropa, Daenemark
N: Daenische Fassung der Ballade, mit "Die wiedergefundene Schwester"
N: vermischt.
R: Ballade, Weglaufen, Schwangerschaft, Rueckkehr
M: 2/4
L: 1/16
K: D
 | A2AAA2=ff | =f2d2A2
=c2 | =c2c2=fddc | A4=c2
A2 | =c2cA_B2BG | A2A=FD2
D2 | =F2FFG2GG | G4_B2
A2 | =F4A2A2 | =F2EED4

